X:1
T:6 Gedichte, Op.8
T:Abreise
T:der Frau Emilie von Henning geb. Krutisch hochachtungsvoll zugeeignet
T:6. Abreise
T:Johanna Kinkel
T:6 Gedichte, Op.8 
T:Emanuel Geibel
T:Creative Commons copyright waiver (CC0 1.0 Universal)
T:Creative Commons copyright waiver (CC0 1.0 Universal)
C:Johanna Kinkel (originally published under the name Johanna Mathieux)
Z:Emanuel Geibel
Z:Creative Commons copyright waiver (CC0 1.0 Universal)
%%score ( 1 2 )
L:1/8
Q:1/4=116
M:6/8
K:Bb
V:1 treble nm="Singstimme\nVoice"
V:2 treble 
V:1
"^Allegretto grazioso"!mf! D/E/ | F2 G/A/ B2 B/c/ | %2
w: Es *|kommt ein * Schiff ge- *|
w: Und *|an des * Schiff- leins *|
 (d2 c) B"^Modern spelling:\n\"rot\"            v.1\n" z B | _c3/2 B/ B e3/2 B/ B | %4
w: zo- * gen, rot|glü- hen die See- gel im|
w: Ran- * de steht|hoch * der Knab' und er|
 B>=c B A2!p! F | e2 d d c A | A>Bc/B/ F2 F | G2 A!<(! =B c!<)! d |!<(! e>de/d/ c2!<)!!f! F | %9
w: A- * bend- schein, der|Wind kommt ko- send ge-|flo- * * * gen, und|lei- se plät- schern die|Wo- * * * gen, und|
w: schwingt den Po- kal; ihr|* ihr flie- get zum|Stran- * * * de, o|grüsst im Hei- mi- schen|Lan- * * * de die|
!f! dA B (dc) A | B2 d f2 B | dA B d2 c | B2 z z2!p! F | c3- c2 f | d3- d2 G | e2 d c2 d | %16
w: Hör- * ner- ton * schallt|drein, tra- rah, und|Hör- * ner- ton schallt|drein. Tra-|rah, _ tra-|rah, _ tra-|rah, tra- rah, tra-|
w: Lie- nen viel tau- * send|mal, tra- rah, die|Lie- ben viel tau- send|mal. Tra-|rah, _ tra-|rah, _ tra-|rah, tra- rah, tra-|
"^dim." B6- | B6- |!pp! !fermata!B3- B2 :| %19
w: rah!|_||
w: rah!|_||
V:2
 x | x6 | x6 | _c2 B e2 B | B3/2 =c/ B x2 x | e3/2 e/ d x2 x | x6 | x6 | x6 | d A B x2 x | x6 | %11
w: |||||||||||
w: |||||Vög- lein, *||||||
 d A B x2 x | x6 | x6 | x6 | x6 | x6 | x6 | x5 :| %19
w: ||||||||
w: ||||||||

